X: 17230
T: Her Long Dark Hair Flowing Down Her Back
R: hornpipe
M: 4/4
K: Aminor
|:cd|edce d2cA|GE~E2 GAcd|edce d2cd|eaag a2gf|
edce d2cA|GE~E2 GAcd|edcA dcAG|A4 A2:|
|:cd|eg~g2 gede|cAAB c3d|eaag a2gf|edce d2cd|
eg~g2 gede|cAAB c3d|edcA dcAG|A2 AG A2:|

